!!!Genre:	Freylekhs
!!!Mode:	Minor
!!!Listening/dance:	dance
!!!One_Mode:	yes
**kern
*thru
*I"P1
*clefG2
*k[b-e-]
*g:
*M2/4
*>A
=1
8dL
16b-L
16aJJ
16gLL
16f#X
16g
16b-JJ
=2
8aL
16aL
16gJJ
16f#XLL
16g
16f#
16e-JJ
=3
8dL
8dJ
16f#XLL
16d
16f#
16aJJ
*>A1
=4
4g
16ccLL
16b-
16a
16gJJ
*>A2
=5:|!
2g
=6||
*>B
(4.dd
8cc#X)
=7
4.dd
8cc#X
=8
(8.ddtL
16cc#XJk)
(8.ddtL
16cc#Jk)
=9
8ddL
8cc#XJ
4dd
=10
8b-L
8b-J
8ddL
8ddJ
=11
8ddL
16ccnL
16b-JJ
16ddLL
16cc
16b-
16aJJ
=12
8gL
8gJ
8b-L
8b-J
=13
8aL
8aJ
16ddLL
16cc
16b-
16aJJ
=14
8gL
8gJ
8b-L
8b-J
=15
8aL
8aJ
4dd
=16
8dL
8dJ
16f#XLL
16d
16f#
16aJJ
=17
2g
==
*-
